X:1
T:Rowland
T:G Major                    Merit Woodruff, 1800
T:Transcribed from Devotional Harmony, 1800.
T:Isaac Watts, 1719; Joel Barlow, 1786 (Psalm 44)                                      86. 86. (C. M.)       
%%score [ 1 2 3 4 ]
L:1/8
Q:1/4=110
M:4/4
K:G
V:1 treble nm="Tr." snm="Tr."
V:2 treble nm="C." snm="C."
V:3 treble-8 nm="T." snm="T."
V:4 bass nm="B." snm="B."
V:1
"_1. Lord, we           have       heard  thy   works   of    old,  Thy   works           of  power and grace,  When to our  ears  our    fa      –    thers  told   The won   –   ders  of  their  days:""_2. Yet    have         we          not     for – got     our  God,  Nor  false     –     ly  dealt with heaven,  Nor  have our steps de – clined        the  road   Of   du     –   ty   thou hast given;""_3. Down  to           the         dust    our   soul   is  bowed,  And  dies            up – on  the  ground;   Rise   for  our  help, re – buke         the proud,  And  all  their  powers  confound." G4 | %1
 (d3 c B2) A2 | G6 GA | B4 B4 | d6 d2 | (d3 c B2) A2 | G4 A4 | B8 | d4 d2 d2 | B4 d4 | %10
 (e2 c2 B2) A2 | A6 G2 | (B2 c2 d2) e2 | d4 d4 | B6 z2 | z8 | z8 | %17
 z4 z2"_1. They saw thy beauteous churches rise,  The  sprea      –      ding   gos            –            pel     run;    While  light             and      glo         –        ry     from                the""_2. Tho'  dra – gons  all  around  us  roar  With  their               de  –  struc         –            tive breath,    And   thine             own     hand                has   bruised             us""_3. Re–deem  us  from  perpetual  shame,  Our  Sa          –      vior     and                         our    God;     We    plead             the      ho          –        nors   of                   thy" d2 | %18
 B2 B2 B2 G2 | A2 A2 A2 A2 | B6 G2 | A6 A2 | B6 B2 | (d3 e d2) B2 | (G3 A B2) G2 | A6 GA | %26
"_1. skies              Through  all              their      tem     –     ples        shone,    Through  all                         their    tem   –  ples    shone,  Through  all                    their       temples   shone.""_2.  sore                Hard      by               the        gates           of          death,      Hard     by                           the     gates      of       death,   Hard      by                     the        gates  of   death.""_3.  name,              The       me      –      rits         of               thy        blood,        The     me             –           rits       of         thy      blood,    The      me         –         rits         of    thy   blood." B6 G2 | %27
 d6 d2 | B6 B2 | A6 A2 | (G2 B2 A2) G2 | d4 (c2 e2) | d6 B2 | (GABc d2) e2 | d4 d4 | B8 |] %36
V:2
 D4 | G6 F2 | E6 E2 | D4 G4 | F6 F2 | (G4 D2) D2 | (D2 E2) D4 | D8 | D4 D2 F2 | G4 F4 | %10
 (G2 F2 E2) E2 | F6 D2 | (G4 F2) E2 | D4 F4 | G6 z2 | z8 | %16
 z4 z2"_1. They saw thy beauteous chur   –   ches    rise,            The     sprea       –       ding   gos            –           pel      run;                                 While    light               and    glo         –        ry""_2. Tho'  dragons  all  a   –  round        us     roar            With    their                  de  –  struc         –           tive    breath,                              And      thine              own   hand                has""_3. Re–deem  us  from  per – pe   –  tual    shame,          Our     Sa          –         vior   and                         our     God;                                  We      plead               the    ho          –      nors" G2 | %17
 D2 D2 D2 D2 | G6 E2 | D6 F2 | G6 G2 | F6 F2 | G6 z2 | z4 z2 D2 | (G3 A G2) E2 | D6 F2 | %26
"_1. from                the       skies           Thru'      all              their       tem      –    ples   shone,                                                                    Thru'   all                          their     temples  shone.""_2. bruised            us         sore           Hard       by                the       gates            of     death,                                                                    Hard    by                           the     gates  of  death.""_3. of                    thy        name,         The        me       –      rits        of               thy    blood,                                                                     The     me            –            rits      of   thy   blood." G6 G2 | %27
 A6 F2 | G6 E2 | D6 F2 | (G4 F2 E2 | D2 G2 F4 | G6) F2 | (G4 A2) GF | G4 F4 | G8 |] %36
V:3
"_1. Lord, we           have       heard  thy   works   of    old,  Thy   works           of  power and grace,  When to our  ears  our    fa      –    thers  told   The won   –   ders  of  their  days:                    They""_2. Yet    have         we          not     for – got     our  God,  Nor  false     –     ly  dealt with heaven,  Nor  have our steps de – clined        the  road   Of   du     –   ty   thou hast given;                    Tho'""_3. Down  to           the         dust    our   soul   is  bowed,  And  dies            up – on  the  ground;   Rise   for  our  help, re – buke         the proud,  And  all  their  powers  confound.                     Re –" G4 | %1
 (d3 e d2) dc | B6 BA | G4 (G2 B2) | A6 A2 | (G3 A B2) c2 | B4 A4 | G8 | A4 B2 A2 | G4 D4 | %10
 (G2 A2 B2) c2 | d6 B2 | (c2 e2 d2) c2 | B4 A4 | G6 z2 | z4 z2 d2 | %16
"_1. saw thy beauteous churches rise, They saw thy beauteous churches rise, The sprea    –   ding    gos             –            pel     run;                                                                  While   light                 and""_2. dragons  all  a  – round  us roar,  Tho' dragons all a – round  us  roar   With  their          de  –  struc            –           tive    breath,                                                                And   thine                own""_3. –deem us from perpetual shame,  Redeem us from perpetual  shame,   Our  Sa      –      vior     and                          our     God;                                                                    We   plead                 the" c2 B2 B2 G2 | %17
 A2 A2 A2 d2 | e2 e2 e2 c2 | d2 d2 d2 d2 | (B3 A G2) B2 | (d>edc B2) A2 | G6 z2 | z8 | z4 z2 B2 | %25
 (d3 e d2) BA | %26
"_1. glo        –         ry     from the skies,  While light and  glo – ry  from the skies Thru'  all                   their       tem  –   ples    shone,  Thru'   all                         their       temples   shone.""_2. hand                has bruised us sore,  And thine own hand has bruised us sore Hard  by                    the         gates      of      death,   Hard   by                          the        gates  of  death.""_3. ho         –         nors  of   thy  name,  We  plead  the  ho – nors of  thy  name,  The   me         –       rits            of        thy     blood.    The    me           –            rits        of   thy    blood." (G3 A B2) GB | %27
 A2 A2 A2 BA | G2 G2 G2 AG | D2 D2 D2 D2 | (GABc d2) c2 | B4 c4 | d6 d2 | (d2 ec A2) c2 | B4 A4 | %35
 G8 |] %36
V:4
 G,4 | G,6 D,2 | E,6 E,F, | G,4 G,,4 | D,6 D,2 | (G,3 A, G,2) F,2 | G,4 D,4 | G,,8 | D,4 G,2 F,2 | %9
 E,4 (D,2 B,,2) | (E,2 F,2 G,2) A,2 | D,6 G,2 | (E,2 C,2 B,,2) C,2 | D,4 D,4 | %14
 G,,6"_1. They saw thy beauteous""_2. Tho'  dragons  all   a –""_3. Redeem  us  from  per–" G,2 | %15
 D,2 D,2 D,2 D,2 | %16
"_1. churches rise, They saw thy beauteous  chur  –  ches   rise,             The     sprea      –       ding    gos           –           pel        run;                                                                                                While""_2. –round us roar,  Tho' dragons all a   –  round      us     roar             With   their                de   –  struc          –          tive      breath,                                                                                              And""_3. –pe–tual shame, Redeem us from per–pe    –    tual   shame,          Our   Sa           –       vior     and                        our       God;                                                                                                  We" G,2 G,2 G,2 E,2 | %17
 D,2 D,2 D,2 B,,2 | E,6 G,2 | D,6 D,2 | (G,3 F, E,2) G,2 | D,6 D,2 | G,,6 z2 | z8 | z8 | %25
 z4 z2 D,2 | %26
"_1. light              and       glo       –      ry         from              the     skies,         While   light   and     glo   –  ry      from     the         skies   Thru'  all                         their     temples    shone.""_2. thine             own      hand            has       bruised           us       sore,           And    thine  own    hand    has    bruised  us          sore   Hard   by                         the        gates  of   death.""_3. plead             the       ho       –      nors        of                 thy     name,           We    plead   the    ho   –   nors    of         thy       name,   The   me           –           rits        of     thy    blood.""_________________________________________________\nStanzas 1a, 2, and 3 by Isaac Watts, 1719.\nStanza 1b by Joel Barlow, 1786." (G,3 A, G,2) E,2 | %27
 D,6 D,2 | G,,6 G,,2 | D,6 D,2 | E,2 G,2 D,2 E,F, | G,4 A,4 | D,6 D,2 | (G,F, E,2 D,2) E,F, | %34
 G,4 D,4 | G,,8 |] %36

